X: 13
T:Garster's Dream
M:6/8
L:1/8
R:Jig
K:G
D|"G"G2B BGB|"C"cdc "G"BAG|"D"FGA ABA|"A7"AdB "D"AFD|"G"G2B BGB|!
"C"cdc "G"BAG|"D"F2E DEF|"G"G3 G2:||:e|"G"gag gdB|"C"ABA "D"AGE|!
"G"gag gdB|
"G"ded "D"def|"G"gag gdB|"C"AcB "Am"AGE|"D"G2E DEF|"G"G3 G3:||
